assets/images/css3.svg

<svg width="24" height="24" viewBox="0 0 24 24" fill="none" xmlns="http://www.w3.org/2000/svg">
<path d="M0 0L2.24973 21.6669L11.9998 24L21.7495 21.6669L24 0H0ZM19.1675 7.02223L11.9911 9.74954L11.9737 9.75592H11.9911H18.9142L18.1203 17.87L12.0021 19.4577L11.9911 19.4547V19.4577L5.83962 17.8407L5.44267 13.7545H5.45326H8.48515H8.49612L8.69459 15.8712L11.9631 16.6048L11.9911 16.5977V16.6011L15.3753 15.7539L15.6071 12.3438L11.9911 12.334L5.2442 12.3139L5.01284 9.75626L11.9911 7.17278L12.3979 7.02257H11.9911H4.74821L4.38415 4.40549H11.9911H19.4654L19.1675 7.02223Z" fill="#626262"/>
</svg>

<svg width="24" height="24" viewBox="0 0 24 24" fill="none" xmlns="http://www.w3.org/2000/svg"><path d="m0 0 2.25 21.667L12 24l9.75-2.333L24 0H0Zm19.168 7.022L11.99 9.75l-.017.006h6.94l-.794 8.114-6.118 1.588-.01-.003v.003L5.84 17.84l-.397-4.087h3.053l.199 2.117 3.268.734.028-.007v.003l3.384-.847.232-3.41-3.616-.01-6.747-.02-.231-2.558 6.978-2.583.407-.15h-7.65l-.364-2.618h15.081l-.297 2.617Z" fill="#626262"/></svg>
